icon/gr/tools.svg

<svg xmlns="http://www.w3.org/2000/svg" viewBox="0 0 24 24" height="1em" width="1em">
  <path fill="none" stroke="#000" stroke-width="2" d="M11,2 L22,13 L17.5,17.5 L6.5,6.5 L11,2 Z M16,6 L17,5 L19,7 L18,8 M13,13 L4,22 L2,20 L11,11 M5,18 L6,19"/>
</svg>

<svg xmlns="http://www.w3.org/2000/svg" width="24" height="24"><path fill="none" stroke="#000" stroke-width="2" d="m11 2 11 11-4.5 4.5-11-11L11 2Zm5 4 1-1 2 2-1 1m-5 5-9 9-2-2 9-9m-6 7 1 1"/></svg>
